!!!SOCIAL_FUNCTION:	songs of principal social dances with corn dance
!!!PDT:	1956
!!!OTL: No_68_Alligator_Dance_Song_(d).krn
!!!LANG: Non-Tone
!!!LING_GROUP: Muskogean
!!!REG: Florida
**kern
*staff1
=1-
*clefF4
*k[f#]
*M2/4
8d\L
8B\J
4B\
=2!|:
[2B\
=3
8B\L]
8A\J
4G\
=4
8B\L
8B\J
4A\
=5||
*M3/4
8.G;\L
16E\Jk
4E\
4r
=6||
*M2/4
8E\L
8E\J
4E\
=7
8.G;\L
16E\Jk
4E\
=8
8B\L
8B\J
4A\
=9||
*M3/4
8.G\L
16E\Jk
4E\
4r
=10||
*M2/4
8E\L
8E\J
4E\
=11
8.G;\L
16E\Jk
4E\
=12
8B\L
8B\J
4B\
=13:|!
4B\
4r
==
*-
